X: 16166
T: Green Mossy Banks Of The Lea, The
R: waltz
M: 3/4
K: Dmajor
ED|E2 B3 B|A3 F ED|E6-|E4 EF|G3 ABc|d2 B2 de|e6-|e4 fe|
d4 BA|F4 ED|E6-|E4 EF|G3 ABG|A3 FED|E6-|E4:|

